si/vodafone.svg

<svg viewBox="0 0 24 24" xmlns="http://www.w3.org/2000/svg" height="1em" width="1em">
  <path d="M12 0A12 12 0 0 0 0 12a12 12 0 0 0 12 12 12 12 0 0 0 12-12A12 12 0 0 0 12 0m4.25 1.12c.32 0 .65.03.86.1-2.17.45-3.9 2.47-3.89 4.78 0 .05 0 .11.01.17 3.64.89 5.27 3.08 5.27 6.11.04 3.03-2.36 6.36-6.41 6.37-3.27.01-6.68-2.79-6.7-7.28C5.38 8.4 7 5.54 9.04 3.85c2-1.66 4.73-2.72 7.21-2.73Z"/>
</svg>

<svg role="img" viewBox="0 0 24 24" xmlns="http://www.w3.org/2000/svg" height="1em" width="1em">
  <path d="M12 0A12 12 0 0 0 0 12A12 12 0 0 0 12 24A12 12 0 0 0 24 12A12 12 0 0 0 12 0M16.25 1.12C16.57 1.12 16.9 1.15 17.11 1.22C14.94 1.67 13.21 3.69 13.22 6C13.22 6.05 13.22 6.11 13.23 6.17C16.87 7.06 18.5 9.25 18.5 12.28C18.54 15.31 16.14 18.64 12.09 18.65C8.82 18.66 5.41 15.86 5.39 11.37C5.38 8.4 7 5.54 9.04 3.85C11.04 2.19 13.77 1.13 16.25 1.12Z"/>
</svg>
